X:1130
T:Bank of Ireland, The
S:Leeds Sessions
R:Reel
O:Ireland
M:4/4
K:DMix
AB|\
c2AB cBAG | EGDG EGAB | c2AB cBAG | Adde fded |\
c2AB cBAG | EGDG EGAB |
c2AB cBAG | Add^c d2 :|\
|:de |\
f2df e2^ce | dfed BAAd | 
f2df e2fg | afeg fdd2|\
faaf egfe | dfed BAAG | Add^c defg | afge d2 :|**


